X: 1
T:Glenlyon
M:C
L:1/8
Q:80
C:Trad. arr. M. Grey
S:Reel
K:HP
|: g|
{a}eA{gAGAG}A2{g}ed{g}Bd|
{g}BG{g}G{d}G{g}BA{g}Bd|
{g}eA{gAGAG}A2{g}ed{g}Bd|  !
{g}ed{gf}g2{a}B{d}A{e}A:| |:
g|
ae{g}e{A}e{g}egae|
{a}gd{g}d{G}d{g}eB{a}gd|  !
ae{g}e{A}e{g}egae|
{g}ed{gf}g2{a}B{d}A{e}A:|
